home-alert.svg

<svg fill="currentColor" viewBox="0 0 24 24"><path d="M12 3 2 12h3v8h14v-8h3zm1 15h-2v-2h2zm0-4h-2V8h2z"/></svg>

<svg  viewBox="0 0 24 24" fill="currentColor"><path  d="M12 3L2 12H5V20H19V12H22L12 3M13 18H11V16H13V18M13 14H11V8H13V14Z"/></svg>
